X: 1
T: Invasion, The
M: 4/4
L: 1/8
R: reel
K: Gmaj
d2 (3efg dBGE|DGBG AFDA|B~G3 c~A3|defg afcA|
d2 (3efg dBGE|DGBG AFDA|(3Bcd BA A~G3|ADFA ~G3z:|
^cdge fd=cA|Bdfa ~g3a|b~g3 ecAG|FAd^c de=cA|
[1AG (3Bcd eceg|fdfa ~g3a|b~g3 ecAG|GAdF ~G3d:|
[2AG (3Bcd ~e3g|~f3a ~g3a|b~g3 ecAG|GAdF ~G3z||
